plasma/desktoptheme/Materia/icons/antimicro.svg

<svg xmlns="http://www.w3.org/2000/svg" width="32" height="32" version="1">
 <g id="antimicro">
  <rect style="opacity:0.001" width="32" height="32" x="0" y="0"/>
  <path style="opacity:0.2" d="M 24.642427,26.760968 C 24.213872,26.572141 23.298665,25.764014 22.60863,24.965128 21.918597,24.166242 21.182424,23.476861 20.972688,23.31124 20.70485,23.099741 18.840767,22.98028 15.577963,22.974759 H 8.7623247 l 0.4249497,-0.710752 c 0.7630515,-1.276247 3.9620966,-1.616841 9.6754376,-1.628562 5.675817,-0.01165 6.119155,-0.153729 7.697032,-1.323944 1.391134,-1.031716 1.993751,-2.42843 2.155974,-5.304646 0.07814,-1.385508 0.41991,-2.658748 0.520222,-1.77551 0.07446,0.655626 0.259143,2.936861 0.443828,5.436829 0.432518,5.854727 0.431646,6.049676 -0.03151,7.067755 -0.63501,1.379895 -1.956656,2.140549 -3.349193,2.251838 -0.608679,0.04325 -1.203806,-0.02728 -1.656636,-0.226808 z"/>
  <path style="fill:#fe6b1b" d="M 24.642427,25.760968 C 24.213872,25.572141 23.298665,24.764014 22.60863,23.965128 21.918597,23.166242 21.182424,22.476861 20.972688,22.31124 20.70485,22.099741 18.840767,21.98028 15.577963,21.974759 H 8.7623247 l 0.4249497,-0.710752 c 0.7630515,-1.276247 3.9620966,-1.616841 9.6754376,-1.628562 5.675817,-0.01165 6.119155,-0.153729 7.697032,-1.323944 1.391134,-1.031716 1.993751,-2.42843 2.155974,-5.304646 0.07814,-1.385508 0.41991,-2.658748 0.520222,-1.77551 0.07446,0.655626 0.259143,2.936861 0.443828,5.436829 0.432518,5.854727 0.431646,6.049676 -0.03151,7.067755 -0.63501,1.379895 -1.956656,2.140549 -3.349193,2.251838 -0.608679,0.04325 -1.203806,-0.02728 -1.656636,-0.226808 z"/>
  <path style="opacity:0.2" d="m 15.958592,5.0000001 c -8.3718893,-2e-7 -9.3467359,0.130533 -11.027914,1.476155 -1.7994949,1.4403234 -1.9958654,2.194073 -2.5591363,9.8259349 -0.2776801,3.762325 -0.4342251,7.205601 -0.3477069,7.651872 0.1955593,1.008717 1.2665067,2.269279 2.2963787,2.703362 1.9967963,0.841638 3.7659196,0.144563 5.6338143,-2.220018 l 1.2773332,-1.617324 c 0.304006,-0.409429 0.643977,-0.750603 1.019218,-1.099772 0.733412,-0.670343 2.124541,-0.698294 6.697397,-0.70763 5.704507,-0.01165 6.51355,-0.142303 8.099403,-1.31279 1.398166,-1.031957 2.021907,-2.793399 2.184949,-5.670285 0.161751,-1.631392 0.121154,-2.510342 -0.08604,-3.659973 C 28.766205,8.281662 28.224916,7.5126651 27.112038,6.5908754 25.343659,5.126139 24.459821,5.0000001 15.958592,5.0000001 Z"/>
  <path style="fill:#ffb300" d="M 15.958592,4.0000002 C 7.5867027,4 6.6118561,4.1305332 4.930678,5.4761552 3.1311831,6.9164786 2.9348126,7.6702282 2.3715417,15.30209 c -0.2776801,3.762325 -0.4342251,7.205601 -0.3477069,7.651872 0.1955593,1.008717 1.2665067,2.269279 2.2963787,2.703362 1.9967963,0.841638 3.7659196,0.144563 5.6338143,-2.220018 l 1.2773332,-1.617324 c 0.304006,-0.409429 0.643977,-0.750603 1.019218,-1.099772 0.733412,-0.670343 2.124541,-0.698294 6.697397,-0.70763 5.704507,-0.01165 6.51355,-0.142303 8.099403,-1.31279 1.398166,-1.031957 2.021907,-2.793399 2.184949,-5.670285 0.161751,-1.631392 0.121154,-2.510342 -0.08604,-3.6599731 C 28.766205,7.2816621 28.224916,6.5126652 27.112038,5.5908755 25.343659,4.1261391 24.459821,4.0000002 15.958592,4.0000002 Z"/>
  <path style="opacity:0.2" d="m 8.7499997,7.9999999 c -0.4155,0 -0.75,0.3345 -0.75,0.75 V 11 h -2.25 c -0.4155,0 -0.75,0.3345 -0.75,0.75 v 1.5 c 0,0.4155 0.3345,0.75 0.75,0.75 h 2.25 v 2.25 c 0,0.4155 0.3345,0.75 0.75,0.75 H 10.25 C 10.6655,17 11,16.6655 11,16.25 V 14 h 2.25 C 13.6655,14 14,13.6655 14,13.25 v -1.5 C 14,11.3345 13.6655,11 13.25,11 H 11 V 8.7499999 c 0,-0.4155 -0.3345,-0.75 -0.75,-0.75 z m 13.7500003,0 a 1.5,1.5 0 0 0 -1.5,1.5 A 1.5,1.5 0 0 0 22.5,11 1.5,1.5 0 0 0 24,9.4999999 a 1.5,1.5 0 0 0 -1.5,-1.5 z M 19.5,11 A 1.5,1.5 0 0 0 18,12.5 1.5,1.5 0 0 0 19.5,14 1.5,1.5 0 0 0 21,12.5 1.5,1.5 0 0 0 19.5,11 Z m 6,0 A 1.5,1.5 0 0 0 24,12.5 1.5,1.5 0 0 0 25.5,14 1.5,1.5 0 0 0 27,12.5 1.5,1.5 0 0 0 25.5,11 Z m -3,3 A 1.5,1.5 0 0 0 21,15.5 1.5,1.5 0 0 0 22.5,17 1.5,1.5 0 0 0 24,15.5 1.5,1.5 0 0 0 22.5,14 Z"/>
  <rect style="fill:#ffffff" width="3" height="9" x="8" y="7" rx=".75" ry=".75"/>
  <circle style="fill:#ffffff" cx="22.5" cy="8.5" r="1.5"/>
  <rect style="fill:#ffffff" width="3" height="9" x="10" y="-14" rx=".75" ry=".75" transform="rotate(90)"/>
  <circle style="fill:#ffffff" cx="22.5" cy="14.5" r="1.5"/>
  <circle style="fill:#ffffff" cx="11.5" cy="-25.5" r="1.5" transform="rotate(90)"/>
  <circle style="fill:#ffffff" cx="11.5" cy="-19.5" r="1.5" transform="rotate(90)"/>
  <path style="opacity:0.2;fill:#ffffff" d="M 15.958984,3.9999999 C 7.5870951,3.9999997 6.6128184,4.1309404 4.9316403,5.4765624 3.1321454,6.9168858 2.9343644,7.6708726 2.3710935,15.302734 2.1115561,18.819241 1.9600534,22.022452 2.0117185,22.794922 2.0441145,21.399059 2.1750694,18.958691 2.3710935,16.302734 2.9343644,8.6708725 3.1321454,7.9168858 4.9316403,6.4765624 6.6128184,5.1309404 7.5870951,4.9999997 15.958984,4.9999999 c 8.501229,0 9.383965,0.1270605 11.152344,1.5917969 1.112878,0.9217897 1.655073,1.6894738 2.035156,3.7773442 0.0912,0.506008 0.148278,0.962799 0.171875,1.451171 0.03672,-0.927959 -0.0228,-1.62403 -0.171875,-2.4511711 C 28.766401,7.2812707 28.224206,6.5135865 27.111328,5.5917968 25.342949,4.1270604 24.460213,3.9999999 15.958984,3.9999999 Z"/>
 </g>
 <g id="22-22-antimicro" transform="translate(27,5)">
  <rect style="opacity:0.001" width="22" height="22" x="5" y="5"/>
  <path style="fill:#dfdfdf" d="m 11.02499,9.0004268 v 0.002 c -2.4887079,0 -4.3597989,2.0010682 -4.4906099,4.4804682 l -0.498089,8.460613 c -0.315026,1.85 1.482765,3.017141 2.994391,0.994141 0.942579,-1.279 2.9689979,-3.9375 2.9689979,-3.9375 l 8.00067,0.04102 2.988531,4.021484 c 1.499025,2.012 3.186861,0.357874 2.996345,-1.003906 L 25.48909,13.58441 c 7.84e-4,-0.03462 0.0098,-0.06675 0.0098,-0.101562 -3e-5,-2.4824 -2.002332,-4.4824212 -4.490641,-4.4824212 z M 9.9995131,11.000426 H 11.99968 v 2 h 2.000168 v 2 H 11.99968 v 2 H 9.9995131 v -2 h -2.000167 v -2 h 2.000167 z m 11.0009209,0 c 0.552331,0 1.000083,0.447715 1.000083,1 0,0.552284 -0.447752,1 -1.000083,1 -0.552331,0 -1.000084,-0.447715 -1.000084,-1 0,-0.552285 0.447753,-1 1.000084,-1 z m -2.000168,2 c 0.552331,0 1.000084,0.447715 1.000084,1 0,0.552285 -0.447753,1 -1.000084,1 -0.552331,0 -1.000083,-0.447716 -1.000083,-1 0,-0.552285 0.447752,-1 1.000083,-1 z m 4.000335,0 c 0.552331,0 1.000084,0.447715 1.000084,1 0,0.552285 -0.447753,1 -1.000084,1 -0.552331,0 -1.000084,-0.447715 -1.000084,-1 0,-0.552285 0.447753,-1 1.000084,-1 z m -2.000167,2 c 0.552331,1e-6 1.000083,0.447716 1.000083,1 0,0.552284 -0.447752,1 -1.000083,1 -0.552331,0 -1.000084,-0.447715 -1.000084,-1 0,-0.552285 0.447753,-1 1.000084,-1 z"/>
 </g>
</svg>

<?xml version="1.0" encoding="UTF-8"?>
<svg width="32" height="32" version="1" xmlns="http://www.w3.org/2000/svg">
 <g id="antimicro">
  <rect width="32" height="32" opacity=".001"/>
  <path d="m24.642 26.761c-0.42856-0.18883-1.3438-0.99695-2.0338-1.7958-0.69003-0.79889-1.4262-1.4883-1.6359-1.6539-0.26784-0.2115-2.1319-0.33096-5.3947-0.33648h-6.8156l0.42495-0.71075c0.76305-1.2762 3.9621-1.6168 9.6754-1.6286 5.6758-0.01165 6.1192-0.15373 7.697-1.3239 1.3911-1.0317 1.9938-2.4284 2.156-5.3046 0.07814-1.3855 0.41991-2.6587 0.52022-1.7755 0.07446 0.65563 0.25914 2.9369 0.44383 5.4368 0.43252 5.8547 0.43165 6.0497-0.03151 7.0678-0.63501 1.3799-1.9567 2.1405-3.3492 2.2518-0.60868 0.04325-1.2038-0.02728-1.6566-0.22681z" opacity=".2"/>
  <path d="m24.642 25.761c-0.42856-0.18883-1.3438-0.99695-2.0338-1.7958-0.69003-0.79889-1.4262-1.4883-1.6359-1.6539-0.26784-0.2115-2.1319-0.33096-5.3947-0.33648h-6.8156l0.42495-0.71075c0.76305-1.2762 3.9621-1.6168 9.6754-1.6286 5.6758-0.01165 6.1192-0.15373 7.697-1.3239 1.3911-1.0317 1.9938-2.4284 2.156-5.3046 0.07814-1.3855 0.41991-2.6587 0.52022-1.7755 0.07446 0.65563 0.25914 2.9369 0.44383 5.4368 0.43252 5.8547 0.43165 6.0497-0.03151 7.0678-0.63501 1.3799-1.9567 2.1405-3.3492 2.2518-0.60868 0.04325-1.2038-0.02728-1.6566-0.22681z" fill="#fe6b1b"/>
  <path d="m15.959 5c-8.3719-2e-7 -9.3467 0.13053-11.028 1.4762-1.7995 1.4403-1.9959 2.1941-2.5591 9.8259-0.27768 3.7623-0.43423 7.2056-0.34771 7.6519 0.19556 1.0087 1.2665 2.2693 2.2964 2.7034 1.9968 0.84164 3.7659 0.14456 5.6338-2.22l1.2773-1.6173c0.30401-0.40943 0.64398-0.7506 1.0192-1.0998 0.73341-0.67034 2.1245-0.69829 6.6974-0.70763 5.7045-0.01165 6.5136-0.1423 8.0994-1.3128 1.3982-1.032 2.0219-2.7934 2.1849-5.6703 0.16175-1.6314 0.12115-2.5103-0.08604-3.66-0.38008-2.0879-0.92137-2.8569-2.0342-3.7787-1.7684-1.4647-2.6522-1.5909-11.153-1.5909z" opacity=".2"/>
  <path d="m15.959 4c-8.3719-2e-7 -9.3467 0.13053-11.028 1.4762-1.7995 1.4403-1.9959 2.1941-2.5591 9.8259-0.27768 3.7623-0.43423 7.2056-0.34771 7.6519 0.19556 1.0087 1.2665 2.2693 2.2964 2.7034 1.9968 0.84164 3.7659 0.14456 5.6338-2.22l1.2773-1.6173c0.30401-0.40943 0.64398-0.7506 1.0192-1.0998 0.73341-0.67034 2.1245-0.69829 6.6974-0.70763 5.7045-0.01165 6.5136-0.1423 8.0994-1.3128 1.3982-1.032 2.0219-2.7934 2.1849-5.6703 0.16175-1.6314 0.12115-2.5103-0.08604-3.66-0.38008-2.0879-0.92137-2.8569-2.0342-3.7787-1.7684-1.4647-2.6522-1.5909-11.153-1.5909z" fill="#ffb300"/>
  <path d="m8.75 8c-0.4155 0-0.75 0.3345-0.75 0.75v2.25h-2.25c-0.4155 0-0.75 0.3345-0.75 0.75v1.5c0 0.4155 0.3345 0.75 0.75 0.75h2.25v2.25c0 0.4155 0.3345 0.75 0.75 0.75h1.5c0.4155 0 0.75-0.3345 0.75-0.75v-2.25h2.25c0.4155 0 0.75-0.3345 0.75-0.75v-1.5c0-0.4155-0.3345-0.75-0.75-0.75h-2.25v-2.25c0-0.4155-0.3345-0.75-0.75-0.75zm13.75 0a1.5 1.5 0 0 0-1.5 1.5 1.5 1.5 0 0 0 1.5 1.5 1.5 1.5 0 0 0 1.5-1.5 1.5 1.5 0 0 0-1.5-1.5zm-3 3a1.5 1.5 0 0 0-1.5 1.5 1.5 1.5 0 0 0 1.5 1.5 1.5 1.5 0 0 0 1.5-1.5 1.5 1.5 0 0 0-1.5-1.5zm6 0a1.5 1.5 0 0 0-1.5 1.5 1.5 1.5 0 0 0 1.5 1.5 1.5 1.5 0 0 0 1.5-1.5 1.5 1.5 0 0 0-1.5-1.5zm-3 3a1.5 1.5 0 0 0-1.5 1.5 1.5 1.5 0 0 0 1.5 1.5 1.5 1.5 0 0 0 1.5-1.5 1.5 1.5 0 0 0-1.5-1.5z" opacity=".2"/>
  <rect x="8" y="7" width="3" height="9" rx=".75" ry=".75" fill="#fff"/>
  <circle cx="22.5" cy="8.5" r="1.5" fill="#fff"/>
  <rect transform="rotate(90)" x="10" y="-14" width="3" height="9" rx=".75" ry=".75" fill="#fff"/>
  <circle cx="22.5" cy="14.5" r="1.5" fill="#fff"/>
  <circle transform="rotate(90)" cx="11.5" cy="-25.5" r="1.5" fill="#fff"/>
  <circle transform="rotate(90)" cx="11.5" cy="-19.5" r="1.5" fill="#fff"/>
  <path d="m15.959 4c-8.3719-2e-7 -9.3462 0.13094-11.027 1.4766-1.7995 1.4403-1.9973 2.1943-2.5605 9.8262-0.25954 3.5165-0.41104 6.7197-0.35938 7.4922 0.032396-1.3959 0.16335-3.8362 0.35938-6.4922 0.56327-7.6319 0.76105-8.3858 2.5605-9.8262 1.6812-1.3456 2.6555-1.4766 11.027-1.4766 8.5012 0 9.384 0.12706 11.152 1.5918 1.1129 0.92179 1.6551 1.6895 2.0352 3.7773 0.0912 0.50601 0.14828 0.9628 0.17188 1.4512 0.03672-0.92796-0.0228-1.624-0.17188-2.4512-0.38008-2.0879-0.92228-2.8556-2.0352-3.7773-1.7684-1.4647-2.6511-1.5918-11.152-1.5918z" fill="#fff" opacity=".2"/>
 </g>
 <g id="22-22-antimicro" transform="translate(27,5)">
  <rect x="5" y="5" width="22" height="22" opacity=".001"/>
  <path d="m11.025 9.0004v2e-3c-2.4887 0-4.3598 2.0011-4.4906 4.4805l-0.49809 8.4606c-0.31503 1.85 1.4828 3.0171 2.9944 0.99414 0.94258-1.279 2.969-3.9375 2.969-3.9375l8.0007 0.04102 2.9885 4.0215c1.499 2.012 3.1869 0.35787 2.9963-1.0039l-0.49614-8.4743c7.84e-4 -0.03462 0.0098-0.06675 0.0098-0.10156-3e-5 -2.4824-2.0023-4.4824-4.4906-4.4824zm-1.0255 2h2.0002v2h2.0002v2h-2.0002v2h-2.0002v-2h-2.0002v-2h2.0002zm11.001 0c0.55233 0 1.0001 0.44772 1.0001 1 0 0.55228-0.44775 1-1.0001 1s-1.0001-0.44772-1.0001-1 0.44775-1 1.0001-1zm-2.0002 2c0.55233 0 1.0001 0.44772 1.0001 1s-0.44775 1-1.0001 1-1.0001-0.44772-1.0001-1c0-0.55228 0.44775-1 1.0001-1zm4.0003 0c0.55233 0 1.0001 0.44772 1.0001 1s-0.44775 1-1.0001 1-1.0001-0.44772-1.0001-1 0.44775-1 1.0001-1zm-2.0002 2c0.55233 1e-6 1.0001 0.44772 1.0001 1s-0.44775 1-1.0001 1-1.0001-0.44772-1.0001-1 0.44775-1 1.0001-1z" fill="#dfdfdf"/>
 </g>
</svg>
